X:1
T:The Blue-Eyed Stranger
O:England
S:Bay Area Teams
S:Morris Ring
Z:John Chambers <jc@trillian.mit.edu>
A:Field Town
M: C|
L:1/8
R:Reel
K:G
D2 \
|: "G"G2D2 D2GF | "C"ED"D"EF "G"G2GA | "G"B3d "C"cBAG \
| "D"E3F "G"G4 :| "G"GABc d2d2 | "C"edcB "D"A4 |
| "G"GABc d2d2 | B3c "D"d2D2 | "G"GABc d2d2 \
| "C"edcB "D"A2GA | "G"B3d "C"cBAG | "D"E3F "G"G4 |]
%%sep 5 5 234
K:C
x4 x4 x4 x4 x4 x4 x4 x4 |
x4 x4 x4 x4 x4 x4 x4 x4 |
x4 x4 x4 x4 x4 x4 x4 x4 |
x4 x4 x4 x4 x4 x4 x4 x4 |
x4 x4 x4 x4 x4 x4 x4 x4 |
x4 x4 x4 x4 x4 x4 x4 x4 |
